actions/symbolic/panel-left-rtl-symbolic.svg

<?xml version="1.0" encoding="UTF-8" standalone="no"?>
<svg
   height="16"
   width="16"
   version="1.1"
   id="svg6"
   xml:space="preserve"
   xmlns="http://www.w3.org/2000/svg"
   xmlns:svg="http://www.w3.org/2000/svg"><defs
     id="defs10" /><path
     id="rect520-6-7-9"
     style="fill:#555761;stroke-width:1;stop-color:#000000"
     d="M 13.5,2 C 14.330999,2 15,2.6690016 15,3.5 v 9 C 15,13.330998 14.330999,14 13.5,14 H 11 10 3.5 C 2.669001,14 2,13.330998 2,12.5 v -9 C 2,2.6690016 2.669001,2 3.5,2 h 6.5 1 z m 0,1 H 11 v 10 h 2.5 c 0.277,0 0.5,-0.223 0.5,-0.5 v -9 C 14,3.2230006 13.777,3 13.5,3 Z M 10,3 H 3.5 C 3.223,3 3,3.2230006 3,3.5 v 9 C 3,12.777 3.223,13 3.5,13 H 10 Z" /><path
     style="opacity:0.25;fill:#555761;stroke-width:1;stop-color:#000000"
     d="M 13.5,3 H 11 v 10 h 2.5 c 0.277,0 0.5,-0.223 0.5,-0.5 v -9 C 14,3.2230006 13.777,3 13.5,3 Z"
     id="path416" /></svg>

<svg
        xmlns='http://www.w3.org/2000/svg'
        xmlns:svg='http://www.w3.org/2000/svg'
        id='svg6'
        width='16'
        height='16'>
  <path
          id='rect520-6-7-9'
          fill='url(#gpa:foreground) #555761'
          fill-opacity='1'
          fill-rule='nonzero'
          stroke-width='1'
          d='M 13.5 2 C 14.331 2, 15 2.669, 15 3.5 L 15 12.5 C 15 13.331, 14.331 14, 13.5 14 L 11 14 L 10 14 L 3.5 14 C 2.669 14, 2 13.331, 2 12.5 L 2 3.5 C 2 2.669, 2.669 2, 3.5 2 L 10 2 L 11 2 Z M 13.5 3 L 11 3 L 11 13 L 13.5 13 C 13.777 13, 14 12.777, 14 12.5 L 14 3.5 C 14 3.223, 13.777 3, 13.5 3 Z M 10 3 L 3.5 3 C 3.223 3, 3 3.223, 3 3.5 L 3 12.5 C 3 12.777, 3.223 13, 3.5 13 L 10 13 Z'
          class="foreground">
  </path>
  <path
          id='path416'
          opacity='0.25'
          fill='url(#gpa:foreground) #555761'
          fill-opacity='1'
          fill-rule='nonzero'
          stroke-width='1'
          d='M 13.5 3 L 11 3 L 11 13 L 13.5 13 C 13.777 13, 14 12.777, 14 12.5 L 14 3.5 C 14 3.223, 13.777 3, 13.5 3 Z'
          class="foreground">
  </path>
</svg>
